X:29
T:Bill McEvoy's #2
R:reel
C:Sean Ryan
B:The Hidden Ireland
D:Christy Barry, Connor McCarthy-Late in the Night
S:Clare FM
Z:psc -  http://www.cranfordpub.com
L:1/8
Q:333
M:C|
K:G
GF|G2 Bd g2 de|=fdc_B A=FFD|C=F ~=F2 dFcF|_BAG=F DGG^F|
G2 Bd g2 de|=fdc_B A=FFD|C=F ~F2 dFcF|_BGAF DG:|
|:Bd|g2 bg dgbg|(3(efg) ag fdef|g2 bg dgbg|agfa g2 ga|
b2 af gfde|fgag fdcA|DGBd gbag|fdcA G2:|
